src/ElevenTwilight/symbolic/devices/phone-symbolic.svg

﻿<?xml version="1.0" encoding="utf-8" standalone="no"?>


<!-- Created with Inkscape (http://www.inkscape.org/) -->



<svg width="16" height="16" viewBox="0 0 16 16" version="1.1" id="svg5" inkscape:version="1.2.1 (9c6d41e410, 2022-07-14, custom)" sodipodi:docname="phone-symbolic.svg" xmlns:inkscape="http://www.inkscape.org/namespaces/inkscape" xmlns:sodipodi="http://sodipodi.sourceforge.net/DTD/sodipodi-0.dtd" xmlns="http://www.w3.org/2000/svg" xmlns:svg="http://www.w3.org/2000/svg">
  <style type="text/css" id="current-color-scheme" xmlns="">
      .ColorScheme-Text {
        color:#31363b;
      }
</style>
  
  <sodipodi:namedview id="namedview7" pagecolor="#ffffff" bordercolor="#000000" borderopacity="0.25" inkscape:showpageshadow="2" inkscape:pageopacity="0.0" inkscape:pagecheckerboard="0" inkscape:deskcolor="#d1d1d1" inkscape:document-units="px" showgrid="false" inkscape:zoom="50.625" inkscape:cx="8" inkscape:cy="8" inkscape:window-width="1920" inkscape:window-height="1012" inkscape:window-x="0" inkscape:window-y="0" inkscape:window-maximized="1" inkscape:current-layer="svg5" style="fill:currentColor" class="ColorScheme-Text" />
  <defs id="defs2" />
  <path id="rect5459" style="fill:currentColor;fill-opacity:1;stroke-width:2;stroke-linecap:round" d="M 5 0 C 3.8920022 0 3 0.89200222 3 2 L 3 14 C 3 15.107998 3.8920022 16 5 16 L 11 16 C 12.107998 16 13 15.107998 13 14 L 13 2 C 13 0.89200222 12.107998 0 11 0 L 5 0 z M 5 1 L 11 1 C 11.553998 1 12 1.4460012 12 2 L 12 14 C 12 14.553998 11.553998 15 11 15 L 5 15 C 4.4460012 15 4 14.553998 4 14 L 4 2 C 4 1.4460012 4.4460012 1 5 1 z M 6.5 12 C 6.2230003 12 6 12.223 6 12.5 C 6 12.777 6.2230003 13 6.5 13 L 9.5 13 C 9.7769997 13 10 12.777 10 12.5 C 10 12.223 9.7769997 12 9.5 12 L 6.5 12 z " class="ColorScheme-Text" />
</svg>

<svg width="16" height="16" version="1.1" xmlns="http://www.w3.org/2000/svg">
 <rect x="6" y="14" width="4" height=".418" ry=".209" fill="#353535" opacity=".45"/>
 <path d="m5 0c-1.108 0-2 0.892-2 2v12c0 1.108 0.892 2 2 2h6c1.108 0 2-0.892 2-2v-12c0-1.108-0.892-2-2-2h-2-2-2zm0.025391 1h0.97461c0 0.554 0.446 1 1 1h2c0.554 0 1-0.446 1-1h0.97461c0.56808 0 1.0254 0.45731 1.0254 1.0254v11.949c0 0.56808-0.45731 1.0254-1.0254 1.0254h-5.9492c-0.56808 0-1.0254-0.45731-1.0254-1.0254v-11.949c0-0.56808 0.45731-1.0254 1.0254-1.0254z" fill="#353535"/>
</svg>
